X:1
T:Cum jucunditate nativitatem - Bai
T:James Gibb editions
T:#
%%score [ 1 2 3 4 ]
L:1/8
Q:1/4=240
M:none
K:C
V:1 treble nm="Soprano" snm="S"
V:2 treble nm="Alto" snm="A"
V:3 treble-8 nm="Tenor" snm="T"
V:4 bass nm="Bass" snm="B"
V:1
"^Cum jucunditate nativitatem""^Tommaso Bai\n(1636-1714)" d12 B4 | d4 e4 d4 c4 | z4 A4 d6 c2 | %3
w: Cum ju-|cun- di- ta- te|na- ti- vi-|
 B4 B2 d2 c4 c2 B2 | A4 c4 (B4 c4- | c4) B4 A8 | G4 B8 c4 | B4 A4 B4 A2 A2 | d6 c2 B4 d2 d2 | %9
w: ta- tem be- a- tae Ma-|ri- ae ce\- *|* le- bre-|mus, cum ju-|cun- di- ta- te na-|ti- vi- ta- tem be-|
 c4 B2 B2 A4 B4 | c2 d2 e4 d8 | z16 | d8 e4 e2 d2 | c4 A4 (d6 c2 | B2 A2) G4 (B4 c4- | %15
w: a- tae Ma- ri- ae|ce- le- bre- mus,||be- a- tae Ma-|ri- ae ce\- *|* * le- bre\- *|
 c4 B2 A2 G2 F2 E4- | E4 G4 z8 | z4 d4 e4 d4 | z4 d4 B4 d4 | z4 d8 d4 | (c2 A2 d8 ^c2 B2 | %21
w: |* mus,|be- a- tae|Ma- ri- ae|ce- le-|bre\- * * * *|
 ^c8) d8 | z16 | z4 A4 d4 d2 c2 | B4 G8 c4 | e4 c4 z4 c4 | G4 G2 G2 F2 G2 A4) | G4 G6 B2 (d4- | %28
w: * mus:||ut i- psa pro|no- bis, pro|no- bis, ut|i- psa pro no\- * *|bis in- ter- ce\-|
 d4 ^c4) d4 (d4- | d2 =c2 B2 A2 B2 A2 G2 F2 | G4) c4 (c2 B2 A2 G2 | A8) A4 z4 | z4 c8 d4 | %33
w: * * dat, in\-||* ter- ce\- * * *|* dat,|in- ter-|
 (c4 B2 c2 d8) | d4 z4 z8 | z4 c4 c4 c2 c2 | c4 c4 d8 | ^c4 z4 z8 | z8 z4 d4- | d4 B4 e4 c4 | %40
w: ce\- * * *|dat|ad Do- mi- num|Je- sum Chri-|stum.|Al\-|* le- lu- ia,|
 A4 (d6 c2 B4 | c4 B4 A4 B4) | A8 G8 | z16 | z16 | z16 | z4 d4 B4 e4 | d4 z4 z8 | z4 d4 B4 e4 | %49
w: al- le\- * *||lu- ia,||||al- le- lu-|ia,|al- le- lu-|
 c4 z4 (c4 d4- | d2 c2 c8) A4 | A16 | A4 B4 G4 c4 | A4 (d4 B4 e4- | e4 c2 A2 d6 c2 | %55
w: ia, al\- *|* * * le-|lu-|ia, al- le- lu-|ia, al\- * *||
 B4 G2 A2 B2 c2 d4 | G4 B6 A2 G4 | A4) B4 A8 | G16- | G16 | G16 | G16 | G16 |[Q:1/4=232] G16 | %64
w: ||* le- lu-|ia.||||||
[Q:1/4=219] G16 |[Q:1/4=206] G16 |[Q:1/4=200] G16 |] %67
w: |||
V:2
 z8 G8- | G4 E4 G4 A4 | G4 D4 z4 D4 | G6 F2 E4 E2 G2 | F4 F2 E2 D4 E4 | ^F4 G8 F4 | G8 z4 G4- | %7
w: Cum|* ju- cun- di-|ta- te na-|ti- vi ta- tem be-|a- tae Ma- ri- ae|ce- le- bre-|mus, cum|
 G4 E4 G4 A4 | G4 ^F4 z4 D4 | G6 F2 E4 G2 G2 | A4 G2 G2 F4 F4 | (E2 F2) (G2 E2) (A2 G2 E2 F2 | %12
w: * ju- cun- di-|ta- te na-|ti- vi- ta- tem be-|a- tae Ma- ri- ae|ce\- * le\- * bre\- * * *|
 G8) G8 | z4 C4 F4 F2 E2 | D4 D4 (G2 F2 E2 D2 | C4) D4 (E2 F2 G4- | G2 F2 E2 D2 C8) | D4 G4 G4 G4 | %18
w: * mus,|be- a- tae Ma-|ri- ae ce\- * * *|* le- bre\- * *||mus, be- a- tae|
 G4 G8 G4 | E4 G4 F2 (G2 A4- | A4 F4 E8- | E8) ^F4 F4- | F4 D4 ^F4 G4 | ^F4 E4 z8 | z4 G8 E4 | %25
w: Ma- ri- ae|ce- le- bre\- * *||* mus: ut|* i- psa pro|no- bis,|ut i-|
 G4 A4 G4 E4 | z4 E4 C4 C2 D2 | E4 C4 D6 D2 | (E2 ^F2 G8 F4) | G8 z4 (G4- | %30
w: psa pro no- bis,|ut i- psa pro|no- bis in- ter-|ce\- * * *|dat, in\-|
 G2 =F2 E2 D2 E2 D2 C2 B,2 | C4) F4 (F2 E2 D2 C2 | D4 G6 F2 E2 D2 | E2 F2 G8 ^F4) | G4 G4 A8 | %35
w: |* ter- ce\- * * *|||dat ad Do-|
 G4 G4 A8 | G4 (A8 G4) | A4 F4 (E2 D2) (D4- | D4 ^C4) D8 | G8 E4 A4 | F4 D4 G6 F2 | %41
w: mi- num Je-|sum Chri\- *|stum, Je- sum * Chri\-|* * stum.|Al- le- lu-|ia, al- le- lu-|
 E4 E4 (^F4 G4- | G4 ^F4 G8 | G4 E4 A4 =F4 | z4 D4 G6 F2 | E8 A4 G4- | G4 ^F4 G8 | z4 G4 E4 A4 | %48
w: ia, al- le\- *|* lu- ia,|al- le- lu- ia,|al- le- lu-|ia, al- le\-|* lu- ia,|al- le- lu-|
 F4 D4 G6 F2 | E4 A6 G2 F2 E2 | F4) G4 F4 F4 | E4 F4 E8 | D8 z4 E4 | C4 F4 D4 G4 | E4 A4 F8 | %55
w: ia, al- le- lu-|ia, al\- * * *|* le- lu- ia,|al- le- lu-|ia, al-|le- lu- ia, al-|le- lu- ia,|
 z4 D4 G6 F2 | E4 G8 E4 | (^F4 G8 F4) | G8 z8 | z4 G4 E4 D2 D2 | C4 B,4 C4 B,4 | E4 D4 E4 B,4 | %62
w: al- le- lu-|ia, al- le-|lu\- * *|ia,|al- le- lu- ia,|al- le- lu- ia,|al- le- lu- ia,|
 z4 (G6 F2 E2 D2 | E2 D2 C2 B,2 C4 D4 | E4) G4 (E2 F2 G2 F2 | E12 D2 C2) | D16 |] %67
w: al\- * * *||* le- lu\- * * *||ia.|
V:3
 z16 | z16 | z16 | z16 | z16 | z8 d8- | d4 B4 d4 e4 | d4 c2 A2 d6 c2 | B4 A4 z4 B4 | %9
w: |||||Cum|* ju- cun- di-|ta- te na- ti- vi-|ta- tem be-|
 e4 d2 d2 c4 e4 | z4 c2 c2 (A2 G2 A2 B2 | c2 d2 e2 c2 A2 B2 c4- | c4 B4) c8 | z8 z4 (d4- | %14
w: a- tae Ma- ri- ae|ce- le- bre\- * * *||* * mus,|ce\-|
 d2 c2 B2 A2 G4) G4 | (A4 G2 F2 E4) C4 | c6 B2 (A2 B2 c4- | c4 B4) c4 d4 | e4 B8 B4 | %19
w: * * * * * le-|bre\- * * * mus,|ce- le- bre\- * *|* * mus, be-|a- tae Ma-|
 c4 B4 (A2 G2 F2 G2 | A4) A4 A8- | A8 D8 | d12 B4 | d4 e4 d4 A4 | z4 B4 e4 e2 d2 | c4 A4 z8 | %26
w: ri- ae ce\- * * *|* le- bre\-|* mus:|ut i-|psa pro no- bis,|ut i- psa pro|no- bis,|
 z4 c4 A4 A2 B2 | c4 G4 B4 A4 | (G8 A8) | G8 z8 | z16 | z4 (d6 c2 B2 A2 | B2 A2 G2 F2 G8- | %33
w: ut i- psa pro|no- bis in- ter-|ce\- *|dat,||in\- * * *||
 G4) G4 A8 | B4 e4 c8 | e4 e4 f8 | e4 e4 d8 | e4 c4 B6 A2 | G8 A8 | z16 | z16 | z16 | z4 d8 B4 | %43
w: * ter- ce-|dat ad Do-|mi- num Je-|sum, ad Do-|mi- num Je- sum|Chri- stum.||||Al- le-|
 e4 c4 A4 d4- | d2 c2 B4 (e6 d2 | c4 B4 A4) B4 | A8 G8 | z8 c4 A4 | d4 B4 z4 B4 | c6 B2 A4 (A4- | %50
w: lu- ia, al- le\-|* lu- ia, al\- *|* * * le-|lu- ia,|al- le-|lu- ia, al-|le- lu- ia, al\-|
 A4 G4 A4) d4 | (^c4 d8 c4) | d8 z8 | z8 B4 G4 | c4 A4 (A4 d4- | d2 c2 B4 e4 B4 | c4 d4 c8- | %57
w: * * * le-|lu\- * *|ia,|al- le-|lu- ia, al\- *|||
 c4) B4 d8 | d4 B4 c4 d2 d2 | e4 d4 c4 B4 | z4 g4 e4 d2 d2 | c4 B4 c4 d4 | (B2 A2 G2 F2 G4 g4- | %63
w: * le- lu-|ia, al- le- lu- ia,|al- le- lu- ia,|al- le- lu- ia,|al- le- lu- ia,|al\- * * * * *|
 g2 f2 e2 d2 e2 d2 c2 B2 | c4) d4 (c2 d2 e2 d2 | c12 B2 A2) | B16 |] %67
w: |* le- lu\- * * *||ia.|
V:4
 z16 | z16 | z16 | z16 | z16 | z16 | G,12 E,4 | G,4 A,4 G,4 D,4 | z4 D,4 G,6 F,2 | %9
w: ||||||Cum ju-|cun- di- ta- te|na- ti- vi-|
 E,4 G,2 G,2 A,4 G,2 G,2 | F,4 (E,2 C,2) (D,2 E,2 F,2 G,2 | A,4 E,4 F,4) A,4 | G,8 C,4 C,4 | %13
w: ta- tem be- a- tae Ma-|ri- ae * ce\- * * *|* * * le-|bre- mus, be-|
 F,4 F,2 E,2 D,4 D,4 | (G,6 F,2 E,2 D,2 C,2 B,,2 | A,,4) B,,4 (C,6 D,2 | E,4 C,4 F,4 A,4 | %17
w: a- tae Ma- ri- ae|ce\- * * * * *|* le- bre\- *|* mus, ce- le-|
 G,8 C,4 G,4 | C4 G,8 G,4 | C,4 G,4 (D,6 E,2 | F,4) D,4 A,8 | A,,8 z4 D,4- | D,4 B,,4 D,4 E,4 | %23
w: bre- mus, be-|a- tae Ma-|ri- ae ce\- *|* le- bre-|mus: ut|* i- psa pro|
 D,4 ^C,4 z4 D,4 | G,4 G,2 F,2 E,4 C,4- | C,4 F,4 C,4 C,2 D,2 | E,4 C,4 F,4 F,4 | %27
w: no- bis, ut|i- psa pro no- bis,|* ut i- psa pro|no- bis in- ter-|
 C,2 D,2 E,2 C,2 G,4 F,4 | E,8 D,8) | G,,4 (G,6 F,2 E,2 D,2 | E,2 D,2 C,2 B,,2 C,4 F,4- | %31
w: ce\- * * * * *||dat, in\- * * *||
 F,2 E,2 D,2 C,2 D,4 G,4- | G,2 F,2 E,2 D,2 C,4 B,,4 | C,4) E,4 D,8 | G,,4 C,4 F,8 | C,4 C4 F,8 | %36
w: ||* ter- ce-|dat ad Do-|mi- num Je-|
 C4 A,4 _B,8 | A,4 A,4 G,6 F,2 | E,8 D,8 | z16 | z16 | z16 | z8 G,8 | E,4 A,4 F,4 D,4 | %44
w: sum, ad Do-|mi- num Je- sum|Chri- stum.||||Al-|le- lu- ia, al-|
 G,6 F,2 E,4 (C,2 D,2 | E,2 F,2 G,2 E,2 F,4) G,4 | D,8 G,,8 | G,4 E,4 A,4 F,4 | D,4 (G,6 F,2 E,4 | %49
w: le- lu- ia, al\- *|* * * * * le-|lu- ia,|al- le- lu- ia,|al- le\- * *|
 A,6 G,2 F,2 E,2 D,4- | D,4 E,4 F,6 G,2 | A,8) A,,8 | D,4 B,,4 E,4 C,4 | F,4 D,4 G,4 E,4 | %54
w: ||* lu-|ia, al- le- lu-|ia, al- le- lu-|
 C,4 (F,6 E,2 D,4 | G,6 F,2 E,4 D,4 | C,4 B,,4 C,4) E,4 | D,16 | G,,4 G,4 E,4 D,2 D,2 | %59
w: ia, al\- * *||* * * le-|lu-|ia, al- le- lu- ia,|
 C,4 B,,4 C,4 G,,4 | (E,6 D,2 C,4) G,4 | C,4 G,,4 z4 (G,4- | G,2 F,2 E,2 D,2 E,2 D,2 C,2 B,,2 | %63
w: al- le- lu- ia,|al\- * * le-|lu- ia, al\-||
 C,4) G,4 C,4 G,,4 | C,4 B,,4 C,8- | C,8 G,,8- | G,,16 |] %67
w: * le- lu- ia,|al- le- lu\-|* ia.||

